Catalina-dark/actions/16/zoom-previous.svg

<?xml version="1.0" encoding="UTF-8" standalone="no"?>
<svg
   xmlns:dc="http://purl.org/dc/elements/1.1/"
   xmlns:cc="http://creativecommons.org/ns#"
   xmlns:rdf="http://www.w3.org/1999/02/22-rdf-syntax-ns#"
   xmlns:svg="http://www.w3.org/2000/svg"
   xmlns="http://www.w3.org/2000/svg"
   xmlns:sodipodi="http://sodipodi.sourceforge.net/DTD/sodipodi-0.dtd"
   xmlns:inkscape="http://www.inkscape.org/namespaces/inkscape"
   width="16"
   height="16"
   viewBox="0 0 16 16"
   version="1.1"
   id="svg7"
   sodipodi:docname="zoom-previous.svg"
   inkscape:version="0.92.4 5da689c313, 2019-01-14">
  <metadata
     id="metadata11">
    <rdf:RDF>
      <cc:Work
         rdf:about="">
        <dc:format>image/svg+xml</dc:format>
        <dc:type
           rdf:resource="http://purl.org/dc/dcmitype/StillImage" />
      </cc:Work>
    </rdf:RDF>
  </metadata>
  <sodipodi:namedview
     pagecolor="#ffffff"
     bordercolor="#666666"
     borderopacity="1"
     objecttolerance="10"
     gridtolerance="10"
     guidetolerance="10"
     inkscape:pageopacity="0"
     inkscape:pageshadow="2"
     inkscape:window-width="640"
     inkscape:window-height="480"
     id="namedview9"
     showgrid="false"
     inkscape:zoom="14.75"
     inkscape:cx="6.8135593"
     inkscape:cy="8"
     inkscape:window-x="0"
     inkscape:window-y="26"
     inkscape:window-maximized="0"
     inkscape:current-layer="svg7" />
  <defs
     id="defs3">
    <style
       id="current-color-scheme"
       type="text/css">
   .ColorScheme-Text { color:#5c616c; } .ColorScheme-Highlight { color:#5294e2; }
  </style>
  </defs>
  <path
     style="fill:#f1f6f8;fill-opacity:0.8509804"
     class="ColorScheme-Text"
     d="M 3.2167969 2 C 2.5469869 2 1.9980469 2.5248 1.9980469 3.1875 L 1.9980469 7 L 3.9980469 7 L 3.9980469 4 L 6.9980469 4 L 6.9980469 2 L 3.2167969 2 z M 8.9980469 2 L 8.9980469 4 L 11.998047 4 L 11.998047 7 L 13.998047 7 L 13.998047 3.1875 C 13.998047 2.5248 13.449107 2 12.779297 2 L 8.9980469 2 z M 7.9980469 5 L 4.9980469 8 L 7.9980469 11 L 7.9980469 9 L 10.998047 9 L 10.998047 7 L 7.9980469 7 L 7.9980469 5 z M 1.9980469 9 L 1.9980469 12.8125 C 1.9980469 13.4752 2.5469869 14 3.2167969 14 L 6.9980469 14 L 6.9980469 12 L 3.9980469 12 L 3.9980469 9 L 1.9980469 9 z M 11.998047 9 L 11.998047 12 L 8.9980469 12 L 8.9980469 14 L 12.779297 14 C 13.449107 14 13.998047 13.4752 13.998047 12.8125 L 13.998047 9 L 11.998047 9 z"
     id="path5" />
</svg>

<svg width="16" height="16" version="1.1" viewBox="0 0 16 16" xmlns="http://www.w3.org/2000/svg">
<defs>
<style id="current-color-scheme" type="text/css">.ColorScheme-Text { color:#5c616c; } .ColorScheme-Highlight { color:#5294e2; }</style>
</defs>
<path class="ColorScheme-Text" d="m3.2168 2c-0.66981 0-1.2188 0.5248-1.2188 1.1875v3.8125h2v-3h3v-2h-3.7812zm5.7812 0v2h3v3h2v-3.8125c0-0.6627-0.54894-1.1875-1.2188-1.1875h-3.7813zm-1 3-3 3 3 3v-2h3v-2h-3v-2zm-6 4v3.8125c0 0.6627 0.54894 1.1875 1.2188 1.1875h3.7812v-2h-3v-3h-2zm10 0v3h-3v2h3.7813c0.66981 0 1.2188-0.5248 1.2188-1.1875v-3.8125h-2z" fill="#dedede" fill-opacity=".85098"/>
</svg>
